X:143
L:1/8
M:3/4
K:G
"^A""G" d>b g3 e | d>b g2 g2 |"D7" c>a f3 d |"G" b>a g>f g2 | d>b g3 e | d>b g2 g2 | 
"D7" c>a f2 d2 |"G" g2 g2 z2 ::[K:D]"^B""D" A2 Ad fa |"A7" a2 ge ce | a2 ge ce |"D" a2 fd Bd | 
"A7" A2 Ac ea |"G" b2 ag eb |"A7" a2 g2 c2 |"D" d2 d2 z2 ::[K:G]"^C""G" (Bd) d3 e | (Te2 d2) d2 | 
 (dg) g3 a |"D7" (Tg2 f2) f2 | A>B c2 d2 | g2 f2 f2 | A>B c2 d2 |"G" e2 d2 d2 | (Bd) d3 e | 
 (Te2 d2) d2 | (dg) b3 a |"Am" (Ta2 e2) e2 |"D7" d>g f>e d>c |"G" B>e d2 d2 |"D7" d>e d>c B>A | 
"G" G2 g2 z2 :|

